PortableApps/LibreOfficePortable/App/libreoffice/help/media/icon-themes/cmd/lc_scriptorganizer.svg

<svg viewBox="0 0 24 24" xmlns="http://www.w3.org/2000/svg"><path d="m15 4c-.265199.0000511-.519519.1054326-.707031.2929688l-3.707031 2.7070312h-8.585938c-.5522619.0000552-.9999448.4477381-1 1v13h1 18 1l2.702146-10.007153c.297854-.992847.297854-.992847-.744519-.992847h-1.957627v-5c-.000055-.5522619-.447738-.9999448-1-1zm0 1h5v5h-14.9788136c-1.0211864 0-1.0211864 0-1.2796742.990786l-1.7415122 6.67523v-9.666016h9z" fill="#eac282"/><g fill="#fff"><path d="m15 5-4 3h-9v9.666016l1.7421875-6.675782c.2584878-.9907856.2581105-.990234 1.2792969-.990234h14.9785156v-5z"/><path d="m15.49635 20.627737c0-.483766.45054-.875912.934306-.875912v-3.50365-.875913c0-.485259.332263-.875912.817518-.875912h4.321168c.483767 0 .934307.392146.934307.875912 0 .483767-.45054.875913-.934307.875913v3.941605.437957c0 .48526-.332263.875913-.817518.875913h-4.321168c-.483766 0-.934306-.392147-.934306-.875913z" stroke="#808080"/></g></svg>

<svg viewBox="0 0 24 24" xmlns="http://www.w3.org/2000/svg">
    <path
       style="fill:#eac282"
       d="m 15,4 c -0.265199,5.11e-5 -0.519519,0.1054326 -0.707031,0.2929688 L 10.585938,7 H 2 C 1.4477381,7.0000552 1.0000552,7.4477381 1,8 v 13 h 1 18 1 L 23.702146,10.992847 C 24,10 24,10 22.957627,10 H 21 V 5 C 20.999945,4.4477381 20.552262,4.0000552 20,4 Z m 0,1 h 5 v 5 H 5.0211864 C 4,10 4,10 3.7415122,10.990786 L 2,17.666016 V 8 h 9 z"
       />
    <path
       style="fill:#ffffff"
       d="M 15,5 11,8 H 2 v 9.666016 L 3.7421875,10.990234 C 4.0006753,9.9994484 4.000298,10 5.0214844,10 H 20 V 5 Z"
       />
  <path
     style="fill:#ffffff;stroke:#808080;stroke-width:1"
     d="m 15.49635,20.627737 c 0,-0.483766 0.45054,-0.875912 0.934306,-0.875912 v -3.50365 -0.875913 c 0,-0.485259 0.332263,-0.875912 0.817518,-0.875912 h 4.321168 c 0.483767,0 0.934307,0.392146 0.934307,0.875912 0,0.483767 -0.45054,0.875913 -0.934307,0.875913 v 3.941605 0.437957 c 0,0.48526 -0.332263,0.875913 -0.817518,0.875913 h -4.321168 c -0.483766,0 -0.934306,-0.392147 -0.934306,-0.875913 z"
     />
</svg>
